X: 15745
T: Gone For His Tea
R: reel
M: 4/4
K: Dmajor
E|~E2 FE DEFG|AFBF AFDE|~E2 FE DEFG|AFDF (3EFE D2|
~E2 FE D2 E/F/G|AFBF AFDE|~E2 FE DEFG|AFDF EDBc||
d2 ed cA~A2|BAGB (3ABA Bc|d2 ed cABc|dBAF (3EFE Dd|
~d2 ed cA~A2|BAGB AF D2|E/F/G FE DEFG|AFDF EDFD||

